humanity-icon-theme/Humanity-Dark/apps/24/nm-stage02-connecting06.svg

<?xml version="1.0" encoding="UTF-8" standalone="no"?>
<!-- Created with Inkscape (http://www.inkscape.org/) -->

<svg
   xmlns:svg="http://www.w3.org/2000/svg"
   xmlns="http://www.w3.org/2000/svg"
   version="1.0"
   width="24"
   height="24"
   id="svg3315">
  <defs
     id="defs3317" />
  <path
     d="M 10.503345,9.0246492 8.0031184,4.6941302"
     id="path3279"
     style="fill:none;stroke:#878787;stroke-width:1px;stroke-linecap:round;stroke-linejoin:miter;stroke-opacity:1" />
  <path
     d="m 17.009357,20.293393 -2.501358,-4.33248"
     id="path3281"
     style="fill:none;stroke:#878787;stroke-width:1px;stroke-linecap:round;stroke-linejoin:miter;stroke-opacity:1" />
  <path
     d="M 9.6737195,9.6612442 6.1378655,6.1253895"
     id="path2629"
     style="opacity:0.75;fill:none;stroke:#878787;stroke-width:1px;stroke-linecap:round;stroke-linejoin:miter;stroke-opacity:1" />
  <path
     d="M 18.87461,18.862134 15.337155,15.32468"
     id="path2631"
     style="opacity:0.75;fill:none;stroke:#878787;stroke-width:1px;stroke-linecap:round;stroke-linejoin:miter;stroke-opacity:1" />
  <path
     d="M 9.0371255,10.490869 4.7066066,7.9906425"
     id="path3403"
     style="opacity:0.6;fill:none;stroke:#878787;stroke-width:1px;stroke-linecap:round;stroke-linejoin:miter;stroke-opacity:1" />
  <path
     d="m 20.305869,16.996881 -4.33248,-2.501358"
     id="path3405"
     style="opacity:0.6;fill:none;stroke:#878787;stroke-width:1px;stroke-linecap:round;stroke-linejoin:miter;stroke-opacity:1" />
  <path
     d="M 8.6369452,11.456989 3.8068796,10.162775"
     id="path3407"
     style="opacity:0.5;fill:none;stroke:#878787;stroke-width:1px;stroke-linecap:round;stroke-linejoin:miter;stroke-opacity:1" />
  <path
     d="M 21.205596,14.824748 16.373343,13.529949"
     id="path3409"
     style="opacity:0.5;fill:none;stroke:#878787;stroke-width:1px;stroke-linecap:round;stroke-linejoin:miter;stroke-opacity:1" />
  <path
     d="m 8.5004514,12.493763 -5.0004516,-10e-7"
     id="path3415"
     style="opacity:0.4;fill:none;stroke:#878787;stroke-width:1px;stroke-linecap:round;stroke-linejoin:miter;stroke-opacity:1" />
  <path
     d="m 21.512477,12.493762 -5.002717,0"
     id="path3417"
     style="opacity:0.4;fill:none;stroke:#878787;stroke-width:1px;stroke-linecap:round;stroke-linejoin:miter;stroke-opacity:1" />
  <path
     d="M 8.6369462,13.530536 3.8068784,14.824748"
     id="path3419"
     style="opacity:0.3;fill:none;stroke:#878787;stroke-width:1px;stroke-linecap:round;stroke-linejoin:miter;stroke-opacity:1" />
  <path
     d="m 21.205596,10.162776 -4.832253,1.294799"
     id="path3421"
     style="opacity:0.3;fill:none;stroke:#878787;stroke-width:1px;stroke-linecap:round;stroke-linejoin:miter;stroke-opacity:1" />
  <path
     d="M 9.0371256,14.496656 4.7066064,16.99688"
     id="path3423"
     style="opacity:0.2;fill:none;stroke:#878787;stroke-width:1px;stroke-linecap:round;stroke-linejoin:miter;stroke-opacity:1" />
  <path
     d="m 20.305869,7.9906415 -4.33248,2.5013595"
     id="path3425"
     style="opacity:0.2;fill:none;stroke:#878787;stroke-width:1px;stroke-linecap:round;stroke-linejoin:miter;stroke-opacity:1" />
  <path
     d="M 9.6737206,15.326281 6.1378667,18.862133"
     id="path3427"
     style="opacity:0.15;fill:none;stroke:#878787;stroke-width:1px;stroke-linecap:round;stroke-linejoin:miter;stroke-opacity:1" />
  <path
     d="M 18.874611,6.1253896 15.337155,9.6628445"
     id="path3429"
     style="opacity:0.15;fill:none;stroke:#878787;stroke-width:1px;stroke-linecap:round;stroke-linejoin:miter;stroke-opacity:1" />
  <path
     d="M 10.503345,15.962874 8.0031198,20.293392"
     id="path3431"
     style="opacity:0.1;fill:none;stroke:#878787;stroke-width:1px;stroke-linecap:round;stroke-linejoin:miter;stroke-opacity:1" />
  <path
     d="M 17.009357,4.6941296 14.507998,9.0266103"
     id="path3433"
     style="opacity:0.1;fill:none;stroke:#878787;stroke-width:1px;stroke-linecap:round;stroke-linejoin:miter;stroke-opacity:1" />
  <path
     d="M 12.506239,16.499548 12.506238,21.5"
     id="path3435"
     style="opacity:0.05;fill:none;stroke:#878787;stroke-width:1px;stroke-linecap:round;stroke-linejoin:miter;stroke-opacity:1" />
  <path
     d="m 12.506237,3.4875224 0,5.0027181"
     id="path3437"
     style="opacity:0.05;fill:none;stroke:#878787;stroke-width:1px;stroke-linecap:round;stroke-linejoin:miter;stroke-opacity:1" />
</svg>

<?xml version="1.0" encoding="UTF-8" standalone="no"?>
<!-- Created with Inkscape (http://www.inkscape.org/) -->
<svg id="svg3315" xmlns="http://www.w3.org/2000/svg" height="24" width="24" version="1.0">
 <path id="path3279" style="stroke:#878787;stroke-linecap:round;stroke-width:1px;fill:none" d="m10.503 9.0246-2.4999-4.3305"/>
 <path id="path3281" style="stroke:#878787;stroke-linecap:round;stroke-width:1px;fill:none" d="m17.009 20.293-2.5014-4.3325"/>
 <path id="path2629" style="opacity:.75;stroke:#878787;stroke-linecap:round;stroke-width:1px;fill:none" d="m9.6737 9.6612-3.5358-3.5358"/>
 <path id="path2631" style="opacity:.75;stroke:#878787;stroke-linecap:round;stroke-width:1px;fill:none" d="m18.875 18.862-3.538-3.537"/>
 <path id="path3403" style="opacity:.6;stroke:#878787;stroke-linecap:round;stroke-width:1px;fill:none" d="m9.0371 10.491-4.3305-2.5004"/>
 <path id="path3405" style="opacity:.6;stroke:#878787;stroke-linecap:round;stroke-width:1px;fill:none" d="m20.306 16.997-4.3325-2.5014"/>
 <path id="path3407" style="opacity:.5;stroke:#878787;stroke-linecap:round;stroke-width:1px;fill:none" d="m8.6369 11.457-4.83-1.294"/>
 <path id="path3409" style="opacity:.5;stroke:#878787;stroke-linecap:round;stroke-width:1px;fill:none" d="m21.206 14.825-4.833-1.295"/>
 <path id="path3415" style="opacity:.4;stroke:#878787;stroke-linecap:round;stroke-width:1px;fill:none" d="m8.5005 12.494-5.0005-0.000001"/>
 <path id="path3417" style="opacity:.4;stroke:#878787;stroke-linecap:round;stroke-width:1px;fill:none" d="m21.512 12.494h-5.0027"/>
 <path id="path3419" style="opacity:.3;stroke:#878787;stroke-linecap:round;stroke-width:1px;fill:none" d="m8.6369 13.531-4.83 1.294"/>
 <path id="path3421" style="opacity:.3;stroke:#878787;stroke-linecap:round;stroke-width:1px;fill:none" d="m21.206 10.163-4.8323 1.2948"/>
 <path id="path3423" style="opacity:.2;stroke:#878787;stroke-linecap:round;stroke-width:1px;fill:none" d="m9.0371 14.497-4.3305 2.5"/>
 <path id="path3425" style="opacity:.2;stroke:#878787;stroke-linecap:round;stroke-width:1px;fill:none" d="m20.306 7.9906-4.3325 2.5014"/>
 <path id="path3427" style="opacity:.15;stroke:#878787;stroke-linecap:round;stroke-width:1px;fill:none" d="m9.6737 15.326-3.5358 3.536"/>
 <path id="path3429" style="opacity:.15;stroke:#878787;stroke-linecap:round;stroke-width:1px;fill:none" d="m18.875 6.1254-3.538 3.5374"/>
 <path id="path3431" style="opacity:.1;stroke:#878787;stroke-linecap:round;stroke-width:1px;fill:none" d="m10.503 15.963-2.4999 4.33"/>
 <path id="path3433" style="opacity:.1;stroke:#878787;stroke-linecap:round;stroke-width:1px;fill:none" d="m17.009 4.6941-2.501 4.3325"/>
 <path id="path3435" style="opacity:.05;stroke:#878787;stroke-linecap:round;stroke-width:1px;fill:none" d="m12.506 16.5v5"/>
 <path id="path3437" style="opacity:.05;stroke:#878787;stroke-linecap:round;stroke-width:1px;fill:none" d="m12.506 3.4875v5.0027"/>
</svg>
